svg/color/etcbear.svg

<?xml version="1.0" encoding="UTF-8" ?>
<!DOCTYPE svg PUBLIC "-//W3C//DTD SVG 1.1//EN" "http://www.w3.org/Graphics/SVG/1.1/DTD/svg11.dtd">
<svg width="250pt" height="248pt" viewBox="0 0 250 248" version="1.1" xmlns="http://www.w3.org/2000/svg">
<g id="#ffffffff">
<path fill="#ffffff" opacity="1.00" d=" M 0.00 0.00 L 250.00 0.00 L 250.00 248.00 L 0.00 248.00 L 0.00 0.00 M 78.46 21.46 C 78.36 38.13 78.54 54.79 78.37 71.45 C 79.87 71.85 81.38 72.37 82.96 72.38 C 134.13 72.33 185.31 72.41 236.48 72.34 C 236.93 55.37 236.61 38.39 236.65 21.42 C 183.92 21.39 131.19 21.30 78.46 21.46 M 78.81 91.51 C 78.08 98.32 78.56 105.17 78.45 112.00 C 78.54 122.13 78.23 132.26 78.60 142.38 C 85.39 142.80 92.20 142.55 99.00 142.59 C 127.67 142.62 156.34 142.56 185.01 142.62 C 187.41 142.61 189.81 142.49 192.21 142.36 C 192.56 131.91 192.26 121.45 192.35 111.00 C 192.24 104.51 192.78 97.99 191.85 91.54 C 154.17 91.45 116.49 91.49 78.81 91.51 M 15.72 91.66 C 15.47 108.56 15.44 125.47 15.73 142.37 C 32.65 142.80 49.59 142.65 66.51 142.44 C 66.77 125.51 66.78 108.55 66.50 91.61 C 49.58 91.46 32.64 91.36 15.72 91.66 M 78.52 162.40 C 77.98 172.26 78.48 182.13 78.33 192.00 C 78.37 198.86 78.02 205.73 78.56 212.57 C 81.68 213.12 84.83 213.53 88.00 213.49 C 98.66 213.37 109.33 213.34 120.00 213.50 C 123.18 213.55 126.35 213.18 129.49 212.65 C 129.92 207.11 129.79 201.55 129.73 196.00 C 129.53 184.79 130.11 173.58 129.51 162.38 C 120.73 161.08 111.83 162.01 103.00 161.77 C 94.84 161.95 86.62 161.14 78.52 162.40 Z" />
</g>
<g id="#02a5c2ff">
<path fill="#02a5c2" opacity="1.00" d=" M 78.46 21.46 C 131.19 21.30 183.92 21.39 236.65 21.42 C 236.61 38.39 236.93 55.37 236.48 72.34 C 185.31 72.41 134.13 72.33 82.96 72.38 C 81.38 72.37 79.87 71.85 78.37 71.45 C 78.54 54.79 78.36 38.13 78.46 21.46 Z" />
</g>
<g id="#5fcadeff">
<path fill="#5fcade" opacity="1.00" d=" M 78.81 91.51 C 116.49 91.49 154.17 91.45 191.85 91.54 C 192.78 97.99 192.24 104.51 192.35 111.00 C 192.26 121.45 192.56 131.91 192.21 142.36 C 189.81 142.49 187.41 142.61 185.01 142.62 C 156.34 142.56 127.67 142.62 99.00 142.59 C 92.20 142.55 85.39 142.80 78.60 142.38 C 78.23 132.26 78.54 122.13 78.45 112.00 C 78.56 105.17 78.08 98.32 78.81 91.51 Z" />
<path fill="#5fcade" opacity="1.00" d=" M 15.72 91.66 C 32.64 91.36 49.58 91.46 66.50 91.61 C 66.78 108.55 66.77 125.51 66.51 142.44 C 49.59 142.65 32.65 142.80 15.73 142.37 C 15.44 125.47 15.47 108.56 15.72 91.66 Z" />
</g>
<g id="#abebf4ff">
<path fill="#abebf4" opacity="1.00" d=" M 78.52 162.40 C 86.62 161.14 94.84 161.95 103.00 161.77 C 111.83 162.01 120.73 161.08 129.51 162.38 C 130.11 173.58 129.53 184.79 129.73 196.00 C 129.79 201.55 129.92 207.11 129.49 212.65 C 126.35 213.18 123.18 213.55 120.00 213.50 C 109.33 213.34 98.66 213.37 88.00 213.49 C 84.83 213.53 81.68 213.12 78.56 212.57 C 78.02 205.73 78.37 198.86 78.33 192.00 C 78.48 182.13 77.98 172.26 78.52 162.40 Z" />
</g>
</svg>

<?xml version="1.0" encoding="utf-8"?>
<!-- Generator: Adobe Illustrator 26.0.3, SVG Export Plug-In . SVG Version: 6.00 Build 0)  -->
<svg version="1.1" id="Layer_1" xmlns="http://www.w3.org/2000/svg" xmlns:xlink="http://www.w3.org/1999/xlink" x="0px" y="0px"
	 viewBox="0 0 250 248" style="enable-background:new 0 0 250 248;" xml:space="preserve">
<style type="text/css">
	.st0{fill:#02A5C2;}
	.st1{fill:#5FCADE;}
	.st2{fill:#ABEBF4;}
</style>
<g id="_x23_02a5c2ff">
	<path class="st0" d="M78.5,21.5c52.7-0.2,105.5-0.1,158.2,0c0,17,0.3,33.9-0.2,50.9c-51.2,0.1-102.3,0-153.5,0
		c-1.6,0-3.1-0.5-4.6-0.9C78.5,54.8,78.4,38.1,78.5,21.5z"/>
</g>
<g id="_x23_5fcadeff">
	<path class="st1" d="M78.8,91.5c37.7,0,75.4-0.1,113,0c0.9,6.4,0.4,13,0.5,19.5c-0.1,10.4,0.2,20.9-0.1,31.4
		c-2.4,0.1-4.8,0.2-7.2,0.3c-28.7-0.1-57.3,0-86,0c-6.8,0-13.6,0.2-20.4-0.2c-0.4-10.1-0.1-20.3-0.2-30.4
		C78.6,105.2,78.1,98.3,78.8,91.5z"/>
	<path class="st1" d="M15.7,91.7c16.9-0.3,33.9-0.2,50.8-0.1c0.3,16.9,0.3,33.9,0,50.8c-16.9,0.2-33.9,0.4-50.8-0.1
		C15.4,125.5,15.5,108.6,15.7,91.7z"/>
</g>
<g id="_x23_abebf4ff">
	<path class="st2" d="M78.5,162.4c8.1-1.3,16.3-0.4,24.5-0.6c8.8,0.2,17.7-0.7,26.5,0.6c0.6,11.2,0,22.4,0.2,33.6
		c0.1,5.6,0.2,11.1-0.2,16.6c-3.1,0.5-6.3,0.9-9.5,0.9c-10.7-0.2-21.3-0.1-32,0c-3.2,0-6.3-0.4-9.4-0.9c-0.5-6.8-0.2-13.7-0.2-20.6
		C78.5,182.1,78,172.3,78.5,162.4z"/>
</g>
</svg>
